static/images/arrow-left.svg

<?xml version="1.0" standalone="no"?><!-- Generator: Adobe Fireworks CS6, Export SVG Extension by Aaron Beall (http://fireworks.abeall.com) . Version: 0.6.1  --><!DOCTYPE svg PUBLIC "-//W3C//DTD SVG 1.1//EN" "http://www.w3.org/Graphics/SVG/1.1/DTD/svg11.dtd"><svg id="Untitled-Page%201" viewBox="0 0 25 25" style="background-color:#ffffff00" version="1.1"	xmlns="http://www.w3.org/2000/svg" xmlns:xlink="http://www.w3.org/1999/xlink" xml:space="preserve"	x="0px" y="0px" width="25px" height="25px">	<g id="Layer%201">		<path id="Ellipse" d="M 0 12.5 C 0 5.5963 5.5963 0 12.5 0 C 19.4037 0 25 5.5963 25 12.5 C 25 19.4037 19.4037 25 12.5 25 C 5.5963 25 0 19.4037 0 12.5 Z" fill="#161819"/>		<g>			<path d="M 19 14.5 L 11.8333 14.5 L 11.8333 18 L 6 12.5 L 11.8333 7 L 11.8333 10.5 L 15 10.5 L 15 10.5 L 15 10.5 L 19 10.5 L 19 14.5 L 19 14.5 Z" fill="#ffffff"/>		</g>	</g></svg>

<svg viewBox="0 0 25 25" style="background-color:#ffffff00" xmlns="http://www.w3.org/2000/svg" width="25" height="25"><g><path d="M0 12.5c0-6.904 5.596-12.5 12.5-12.5s12.5 5.596 12.5 12.5-5.596 12.5-12.5 12.5-12.5-5.596-12.5-12.5z" fill="#161819"/><path d="M19 14.5h-7.167v3.5l-5.833-5.5 5.833-5.5v3.5h7.167v4z" fill="#fff"/></g></svg>
